icons/folder-vm.svg

<svg xmlns="http://www.w3.org/2000/svg" viewBox="0 0 16 16"><path id="folder" fill="#039be5" d="m6.922 3.768-.644-.536A1 1 0 0 0 5.638 3H2a1 1 0 0 0-1 1v8a1 1 0 0 0 1 1h12a1 1 0 0 0 1-1V5a1 1 0 0 0-1-1H7.562a1 1 0 0 1-.64-.232"/><path id="motive" fill="#b3e5fc" d="M15 13V8.25a.25.25 0 0 0-.25-.25h-6.5a.25.25 0 0 0-.25.25V13h-.75a.25.25 0 0 0-.25.25v.5a.25.25 0 0 0 .25.25h8.5a.25.25 0 0 0 .25-.25v-.5a.25.25 0 0 0-.25-.25ZM9 9h5v3H9Z"/></svg>

<svg xmlns="http://www.w3.org/2000/svg" viewBox="0 0 16 16">
<path id="folder" fill="#039be5" d="m6.922 3.768-.644-.536A1 1 0 0 0 5.638 3H2a1 1 0 0 0-1 1v8a1 1 0 0 0 1 1h12a1 1 0 0 0 1-1V5a1 1 0 0 0-1-1H7.562a1 1 0 0 1-.64-.232" />
<path id="motive" fill="#b3e5fc" d="M 15,13 V 8.25 A 0.25,0.25 0 0 0 14.75,8 H 8.25 A 0.25,0.25 0 0 0 8,8.25 V 13 H 7.25 A 0.25,0.25 0 0 0 7,13.25 v 0.5 A 0.25,0.25 0 0 0 7.25,14 h 8.5 A 0.25,0.25 0 0 0 16,13.75 v -0.5 A 0.25,0.25 0 0 0 15.75,13 Z M 9,9 h 5 v 3 H 9 Z" />
</svg>
